svg/icon/bqx.svg

<svg xmlns="http://www.w3.org/2000/svg" xmlns:xlink="http://www.w3.org/1999/xlink" width="32" height="32" viewBox="0 0 32 32">
  <defs>
    <linearGradient id="bqx-c" x1="50%" x2="50%" y1="0%" y2="100%">
      <stop offset="0%" stop-color="#FFF" stop-opacity=".5"/>
      <stop offset="100%" stop-opacity=".5"/>
    </linearGradient>
    <circle id="bqx-b" cx="16" cy="15" r="15"/>
    <filter id="bqx-a" width="111.7%" height="111.7%" x="-5.8%" y="-4.2%" filterUnits="objectBoundingBox">
      <feOffset dy=".5" in="SourceAlpha" result="shadowOffsetOuter1"/>
      <feGaussianBlur in="shadowOffsetOuter1" result="shadowBlurOuter1" stdDeviation=".5"/>
      <feComposite in="shadowBlurOuter1" in2="SourceAlpha" operator="out" result="shadowBlurOuter1"/>
      <feColorMatrix in="shadowBlurOuter1" values="0 0 0 0 0   0 0 0 0 0   0 0 0 0 0  0 0 0 0.199473505 0"/>
    </filter>
    <path id="bqx-e" d="M26.9542255,14.8581086 C26.3986959,12.3559315 25.0875327,10.3519359 23.0414973,8.86011947 C21.3169464,7.60274984 19.3591297,6.97341896 17.2455664,7.04247523 C12.6722257,7.19192965 9.29617878,10.1769263 8.0967592,14.0758059 C7.38328631,16.3951489 7.51678347,18.7079596 8.47110396,20.9568107 C9.42514101,23.2048004 11.0171868,24.8382467 13.1336553,26 C12.900673,25.9401321 12.6645021,25.8905293 12.4352753,25.8186017 C11.3345614,25.4728178 10.3076111,24.9716933 9.37043835,24.2902472 C8.81887682,23.8891179 8.31797903,23.4304895 7.84790462,22.9314467 C7.04089868,22.0745603 6.40232308,21.1061933 5.92381653,20.0315141 C5.52247474,19.130337 5.24804028,18.1884584 5.11156707,17.2050167 C5.01342823,16.4982308 4.98487231,15.7890761 5.00712184,15.0787728 C5.04120471,13.9918903 5.2405293,12.9326447 5.58553869,11.9020409 C6.00168987,10.6588845 6.61135526,9.52232744 7.40709472,8.48641164 C8.31195606,7.30843518 9.39998629,6.34437523 10.6676425,5.58461271 C11.7947865,4.90912469 12.9991662,4.43800589 14.2855998,4.19731393 C15.3918406,3.99028869 16.504813,3.94269586 17.628981,4.07104576 C18.3664749,4.15517668 19.0855456,4.30111368 19.7864057,4.53685254 C20.6165115,4.81616433 21.4062988,5.18527797 22.1425172,5.67010753 C22.7377984,6.06204851 23.2939657,6.50287444 23.8018785,7.00356827 C24.4337934,7.62643858 24.9811743,8.31980083 25.4363684,9.08631105 C26.0055028,10.0446283 26.4366051,11.0641773 26.6729178,12.155654 C26.8022343,12.7527538 26.8572204,13.36701 26.9338891,13.9750928 C26.9703103,14.2634494 26.9788842,14.5553952 27,14.8456899 C26.9847655,14.8498534 26.9695309,14.8539451 26.9542255,14.8581086 Z M15.5891032,19.0883649 C15.5891032,17.7129105 15.5879695,16.3373843 15.5942759,14.9619299 C15.5944885,14.9182851 15.6659137,14.8437733 15.7121134,14.8365949 C16.0032704,14.7912991 16.2959155,14.7472955 16.5896234,14.7282727 C17.4556543,14.671994 18.3227482,14.6320103 19.1892751,14.7217404 C19.8163717,14.7867767 20.4022287,14.9737742 20.9125506,15.3604032 C21.7826205,16.0195962 21.8710518,17.2936916 21.1899611,18.0378051 C20.9566954,18.2926386 20.6929605,18.4895422 20.3714761,18.6107137 C20.3295988,18.6265062 20.3017515,18.6803443 20.2674561,18.7165952 C20.3049401,18.7480367 20.3377476,18.7956295 20.3807586,18.8086942 C21.4497988,19.1329428 22.0797296,20.0856609 21.9155508,21.1875462 C21.7595915,22.2342296 21.12548,22.8619095 20.1609559,23.1802718 C19.2380257,23.4849233 18.2820046,23.5104785 17.3247789,23.4903789 C16.8120478,23.4794678 16.3002378,23.4308699 15.7879318,23.4007206 C15.6588987,23.3931115 15.5908747,23.3555685 15.591725,23.1967821 C15.5984566,21.8273576 15.5955514,20.4578612 15.5955514,19.0883649 L15.5891032,19.0883649 Z M17.4624567,17.1541433 L17.4591264,17.1541433 C17.4591264,17.4346755 17.4609687,17.7152076 17.4582052,17.9958115 C17.4570007,18.1184186 17.4926424,18.1835268 17.6312414,18.1789326 C17.8666329,18.1712517 18.1028038,18.1883363 18.3381244,18.1795069 C18.6899362,18.1663704 19.0266552,18.0926482 19.3245438,17.8854794 C19.926769,17.4665476 19.8876552,16.5762099 19.2399389,16.2506691 C19.0598878,16.1601494 18.8497927,16.1041579 18.6492635,16.0887961 C18.3276374,16.0641024 18.0023975,16.0922417 17.6789291,16.0869297 C17.5027043,16.0839865 17.4560795,16.1686199 17.4604727,16.3300623 C17.4677711,16.6045646 17.4624567,16.8794257 17.4624567,17.1541433 Z M17.4592681,20.8202272 L17.4609687,20.8202272 C17.4609687,21.1787168 17.4644408,21.53735 17.4590555,21.895696 C17.4572132,22.0172264 17.5055386,22.0816885 17.6207543,22.0789607 C18.0208207,22.0698441 18.4238631,22.0819756 18.8197488,22.0342392 C19.2017462,21.9881539 19.5532746,21.8237684 19.7694635,21.4782717 C20.130912,20.9006971 20.0532512,19.9603259 19.0537231,19.6695287 C18.5935689,19.5356514 18.1228567,19.5344311 17.6510109,19.5345746 C17.5070267,19.5345746 17.4548749,19.601262 17.4572841,19.7449019 C17.463307,20.103248 17.4592681,20.4618094 17.4592681,20.8202272 Z M24.3838099,14.6318165 C24.1718017,14.3741835 23.9955769,14.1177708 23.7778291,13.9050746 C23.427718,13.5630954 23.0711587,13.2209725 22.6798079,12.9307496 C21.8803838,12.3380286 20.9823249,11.9608033 20.0066051,11.76512 C19.2236911,11.6081282 18.4425484,11.5753229 17.6499976,11.6702214 C16.6583347,11.7888805 15.733137,12.1052329 14.8602328,12.5851093 C14.048692,13.0313908 13.3519416,13.624399 12.7390876,14.3220683 C12.0017355,15.1614393 11.4877289,16.1310984 11.1637644,17.1972353 C10.8766463,18.14177 10.7770903,19.1146594 10.890818,20.1028388 C10.9171773,20.33183 10.9475755,20.5603904 10.9482133,20.806538 C10.8682142,20.662252 10.7806332,20.5217706 10.7095623,20.3731058 C10.3147395,19.5483787 10.0556813,18.6843139 9.99318419,17.7658369 C9.9026272,16.4358935 10.1075496,15.1624443 10.6669764,13.9462787 C11.089434,13.0279452 11.669268,12.2297064 12.395212,11.5442404 C13.2703128,10.7179341 14.2877681,10.1338272 15.4374451,9.78136741 C16.3959462,9.48748346 17.3738625,9.41505334 18.3612739,9.5030606 C19.1770662,9.57577786 19.957642,9.80728146 20.6994583,10.1685706 C21.8706762,10.7390386 22.8111084,11.5747486 23.5257859,12.6715373 C23.9045239,13.2527729 24.1825013,13.8828216 24.3831722,14.5482598 C24.3880614,14.5641959 24.3838099,14.5829315 24.3838099,14.6318165 Z"/>
    <filter id="bqx-d" width="115.9%" height="115.9%" x="-8%" y="-5.7%" filterUnits="objectBoundingBox">
      <feOffset dy=".5" in="SourceAlpha" result="shadowOffsetOuter1"/>
      <feGaussianBlur in="shadowOffsetOuter1" result="shadowBlurOuter1" stdDeviation=".5"/>
      <feColorMatrix in="shadowBlurOuter1" values="0 0 0 0 0   0 0 0 0 0   0 0 0 0 0  0 0 0 0.204257246 0"/>
    </filter>
  </defs>
  <g fill="none" fill-rule="evenodd">
    <use fill="#000" filter="url(#bqx-a)" xlink:href="#bqx-b"/>
    <use fill="#319E31" xlink:href="#bqx-b"/>
    <use fill="url(#bqx-c)" style="mix-blend-mode:soft-light" xlink:href="#bqx-b"/>
    <circle cx="16" cy="15" r="14.5" stroke="#000" stroke-opacity=".097"/>
    <g>
      <use fill="#000" filter="url(#bqx-d)" xlink:href="#bqx-e"/>
      <use fill="#FFF" xlink:href="#bqx-e"/>
    </g>
  </g>
</svg>

<svg xmlns="http://www.w3.org/2000/svg" xmlns:xlink="http://www.w3.org/1999/xlink" width="32" height="32"><defs><linearGradient id="c" x1="50%" x2="50%" y1="0%" y2="100%"><stop offset="0%" stop-color="#FFF" stop-opacity=".5"/><stop offset="100%" stop-opacity=".5"/></linearGradient><circle id="b" cx="16" cy="15" r="15"/><filter id="a" width="111.7%" height="111.7%" x="-5.8%" y="-4.2%" filterUnits="objectBoundingBox"><feOffset dy=".5" in="SourceAlpha" result="shadowOffsetOuter1"/><feGaussianBlur in="shadowOffsetOuter1" result="shadowBlurOuter1" stdDeviation=".5"/><feComposite in="shadowBlurOuter1" in2="SourceAlpha" operator="out" result="shadowBlurOuter1"/><feColorMatrix in="shadowBlurOuter1" values="0 0 0 0 0 0 0 0 0 0 0 0 0 0 0 0 0 0 0.199473505 0"/></filter><path id="e" d="M26.954 14.858c-.555-2.502-1.866-4.506-3.913-5.998-1.724-1.257-3.682-1.887-5.795-1.818-4.574.15-7.95 3.135-9.15 7.034-.713 2.32-.58 4.632.375 6.88.954 2.249 2.546 3.882 4.663 5.044-.233-.06-.47-.11-.699-.181A10.541 10.541 0 0 1 9.37 24.29a10.928 10.928 0 0 1-1.522-1.359 10.317 10.317 0 0 1-1.924-2.9 10.449 10.449 0 0 1-.812-2.826 12.567 12.567 0 0 1-.105-2.126c.034-1.087.234-2.146.579-3.177a11.631 11.631 0 0 1 1.821-3.416 11.575 11.575 0 0 1 3.26-2.901 10.896 10.896 0 0 1 3.619-1.388 11.174 11.174 0 0 1 3.343-.126c.737.084 1.457.23 2.157.466.83.28 1.62.648 2.357 1.133.595.392 1.151.833 1.659 1.334.632.622 1.18 1.316 1.634 2.082.57.959 1 1.978 1.237 3.07.13.597.184 1.211.26 1.82.037.287.046.58.067.87l-.046.012zm-11.365 4.23c0-1.375-.001-2.75.005-4.126 0-.044.072-.118.118-.125a9.88 9.88 0 0 1 .878-.109c.866-.056 1.733-.096 2.6-.006.626.065 1.212.252 1.723.638.87.66.958 1.934.277 2.678a2.108 2.108 0 0 1-.819.573c-.041.016-.07.07-.104.106.038.031.07.079.114.092 1.069.324 1.699 1.277 1.535 2.379-.156 1.046-.79 1.674-1.755 1.992-.923.305-1.879.33-2.836.31-.513-.01-1.025-.06-1.537-.09-.13-.007-.197-.044-.196-.203.006-1.37.004-2.74.004-4.109h-.007zm1.873-1.934h-.003c0 .28.002.561 0 .842-.002.122.034.188.172.183.236-.008.472.01.707 0 .352-.013.689-.086.987-.294.602-.418.563-1.309-.085-1.634a1.62 1.62 0 0 0-.59-.162c-.322-.025-.648.003-.971-.002-.176-.003-.223.082-.219.243.008.275.002.55.002.824zm-.003 3.666h.002c0 .359.003.717-.002 1.076-.002.121.047.186.162.183.4-.01.803.003 1.199-.045.382-.046.733-.21.95-.556.36-.577.283-1.518-.716-1.808-.46-.134-.931-.136-1.403-.135-.144 0-.196.066-.194.21.006.358.002.717.002 1.075zm6.925-6.188c-.212-.258-.388-.514-.606-.727-.35-.342-.707-.684-1.098-.974a6.607 6.607 0 0 0-2.673-1.166 7.403 7.403 0 0 0-2.357-.095 7.628 7.628 0 0 0-2.79.915c-.811.446-1.508 1.04-2.12 1.737a7.687 7.687 0 0 0-1.576 2.875 7.117 7.117 0 0 0-.273 2.906c.026.229.057.457.057.704-.08-.145-.167-.285-.238-.434-.395-.825-.654-1.689-.717-2.607-.09-1.33.115-2.604.674-3.82a7.706 7.706 0 0 1 1.728-2.402 7.627 7.627 0 0 1 3.042-1.763c.959-.294 1.937-.366 2.924-.278a6.671 6.671 0 0 1 2.338.666 6.95 6.95 0 0 1 2.827 2.503c.379.58.657 1.21.857 1.876.005.016 0 .035 0 .084z"/><filter id="d" width="115.9%" height="115.9%" x="-8%" y="-5.7%" filterUnits="objectBoundingBox"><feOffset dy=".5" in="SourceAlpha" result="shadowOffsetOuter1"/><feGaussianBlur in="shadowOffsetOuter1" result="shadowBlurOuter1" stdDeviation=".5"/><feColorMatrix in="shadowBlurOuter1" values="0 0 0 0 0 0 0 0 0 0 0 0 0 0 0 0 0 0 0.204257246 0"/></filter></defs><g fill="none" fill-rule="evenodd"><use fill="#000" filter="url(#a)" xlink:href="#b"/><use fill="#319E31" xlink:href="#b"/><use fill="url(#c)" style="mix-blend-mode:soft-light" xlink:href="#b"/><circle cx="16" cy="15" r="14.5" stroke="#000" stroke-opacity=".097"/><use fill="#000" filter="url(#d)" xlink:href="#e"/><use fill="#FFF" xlink:href="#e"/></g></svg>
